X: 15
T: Half Past Four
B: canberra pickers and fiddlers
B: tunes
M:4/4
L:1/8
Q: 1/4=100
K:A
V:1 
%
(3""efg | "A"a2 ab aecA | "D"defd "A"ecAe | "A"a2 ab aecA | "D"defg "A"a2 ef | 
"G"=gaba gfge | "D"defd efed | "A"c2 AB cABA | "E"GABG "A"A2 :|
|: [G,D][G,E]| "A"[G2A2] [Ae>]c d2 c2 | {B/c/}"G"BAGA BcdB | 
"A"Acec dAcA | "G"BA G2 "A"A4  | "A"[G2A2] [Ae>]c d2 c2 | 
{B/c/}"G"BAGA Bc d2 | "A"[e3e3] [e2e2] [ef] ec | "E"BAG2 "A" [A2A2] :||
% abcbook-tune_id 63ae8f1c8cb8f916b8e920d0
% abcbook-tune_composer_id 
% abcbook-link-0 https://www.youtube.com/watch?v=nFENHHdxobU
% abcbook-boost 8
% abcbook-difficulty 0
% abcbook-tags canberra pickers and fiddlers,old time tunes,© free
% abcbook-tablature 
% abcbook-transpose 
% abcbook-tuning AEAE
% abcbook-lastupdated 1732836252141
% abcbook-src-url https://tunebook.net/scrape/tunes.abc
% abcbook-soundfonts 
% abcbook-repeats 1


